X:1
T:Title
%%score { ( 1 3 5 ) | ( 2 4 6 ) }
L:1/8
M:4/4
K:F
V:1 treble nm="Grand Piano"
V:3 treble 
V:5 treble 
V:2 bass 
V:4 bass 
V:6 bass 
V:1
 z4 z2[Q:1/4=100] FG | A2 c2 z2 G2 | [A,F]6 GA | B2 d2 A2 z2 | [DGB]6 c^c | d2 Ac z2 z =B | %6
 c2 GB z2 z A | G3 G A2 G2 |[M:9/8] c6- c/ z/ z z |[M:4/4] A2 c2 z2 G2 | F6 FE | [B,D]2 F2 B2 d2 | %12
 [EA^ce]6 e_e | d2 Ac B3 B | A2 EG F2 G_A | [CA]2 z2 z4 |[M:3/4] [A,CF]6 |[M:1/4] z2 | %18
[M:4/4] z4 G2 z2 | c4 f2 z2 | A4 E2 z2 | A4 d2 z2 | e2 d2 c2 cc | [Be]2 [EBd]2 [FAc]2 AA | %24
 c2 B2 A2 CC |[M:7/8] G3 F F3 |] %26
V:2
 z8 | [F,CF]4 [D,G,B,]4 | [F,,F,]6 z2 | [G,DG]4 z2 c2 | [G,,G,]6 z2 | ^F,,2 [^F,A,D]2 G,,2 [G,D]2 | %6
 E,,2 [E,G,C]2 F,,2 [F,C]2 | [G,=B,DF]3 [G,B,DF] [G,CF]2 [G,B,F]2 | %8
[M:9/8][K:bass] G,2 A,- A, B,2- B, z z |[M:4/4] [F,CF]4 [C,G,B,]4 | [D,A,D]6 z2 | %11
 z2[K:treble] D2 [DF]2 [FB]2 | [A,,,A,,]6 z2 | z2[K:treble] [A,CD]2 [DG]4 | z2 A,2 [D,A,]2 z2 | %15
 z2 A,C C,2 C,2 |[M:3/4] F,6 |[M:1/4][K:treble] cc |[M:4/4] c4[K:bass] z4 | %19
 z2 [F,A,][F,A,] [F,A,F][F,A,] z2 | z2 [A,,G,][A,,G,] [A,,G,][A,,G,] z2 | %21
 z2 [D,F,][D,F,] [D,F,D][D,F,][D,A,][D,A,] | [B,F]2 [B,F]2 [A,CF]2 [A,CF][A,CF] | %23
 [G,C]2 C,2 F,2 [F,_EF][F,EF] | [B,DF]2 [G,^CF]2 [=CF]2[K:bass] [C,A,][C,A,] | %25
[M:7/8] [C,B,C]3 [F,A,C] [F,A,C]3 |] %26
V:3
 x8 | z4 E4 | x8 | z4 [A,D^F]4 | x8 | z4 B4 | z4 A4 | x8 |[M:9/8] E2 F- F G2- GFG |[M:4/4] z4 E4 | %10
 x8 | x8 | x8 | x8 | x8 | F2- [F-c][FA] [A,CF]2 [B,CEG]2 |[M:3/4] x6 |[M:1/4] x2 | %18
[M:4/4] z2 [B,E][B,E] [B,E][B,E]cc | z2 FF z FAA | z2 ^CC CCAA | z2 DD z D[Fd][Fd] | x8 | x8 | x8 | %25
[M:7/8] x7 |] %26
V:4
 x8 | x8 | x8 | z4 D,4 | x8 | x8 | x8 | x8 |[M:9/8][K:bass] C,6- C,/ z/ z z |[M:4/4] x8 | x8 | %11
 [B,,,B,,]8[K:treble] | x8 | z4[K:treble] G,2 z2 | ^C,4 z4 | C,4 z4 |[M:3/4] x6 | %17
[M:1/4][K:treble] x2 |[M:4/4] z2[K:bass] C,C, C,C, z2 | x8 | x8 | x8 | x8 | x8 | x6[K:bass] x2 | %25
[M:7/8] x7 |] %26
V:5
 x8 | x8 | x8 | x8 | x8 | z4 z2 G2 | z4 z2 F2 | x8 |[M:9/8] x9 |[M:4/4] x8 | x8 | x8 | x8 | x8 | %14
 x8 | x8 |[M:3/4] x6 |[M:1/4] x2 |[M:4/4] x8 | x8 | x8 | x8 | x8 | x8 | x8 |[M:7/8] x7 |] %26
V:6
 x8 | x8 | x8 | x8 | x8 | x8 | x8 | x8 |[M:9/8][K:bass] x9 |[M:4/4] x8 | x8 | x2[K:treble] x6 | %12
 x8 | ^F,6[K:treble] z2 | x8 | x8 |[M:3/4] x6 |[M:1/4][K:treble] x2 |[M:4/4] x2[K:bass] x6 | x8 | %20
 x8 | x8 | x8 | x8 | x6[K:bass] x2 |[M:7/8] x7 |] %26

